src/img/walking.svg

<svg fill="none" height="24" viewBox="0 0 24 24" width="24" xmlns="http://www.w3.org/2000/svg"><path clip-rule="evenodd" d="m13.8518 5.74269c1.0332 0 1.8714-.83821 1.8714-1.87134 0-1.03314-.8382-1.87135-1.8714-1.87135-1.0331 0-1.8713.83821-1.8713 1.87135 0 1.03313.8382 1.87134 1.8713 1.87134zm3.6843 5.81291-.9084-.4601-.3782-1.14618c-.5731-1.73879-2.1715-2.95517-3.9844-2.95907-1.236-.00343-1.9851.30454-3.14214.78014h-.00001l-.00008.00003c-.15683.06447-.32116.13202-.4952.20229-.84211.33918-1.53217.98246-1.93762 1.80117l-.26121.53022c-.3041.616-.05848 1.3645.5536 1.6725.60819.308 1.34893.0585 1.65692-.5575l.26121-.5302c.13645-.2729.36258-.4873.64328-.6004l1.04485-.42105-.59261 2.36645c-.20273.8109.01561 1.6725.58091 2.2924l2.3353 2.5497c.2807.308.4795.6784.5809 1.0799l.7134 2.8577c.1677.6667.846 1.0761 1.5127.9084.6667-.1676 1.076-.846.9084-1.5126l-.8655-3.4698c-.1014-.4016-.3002-.7759-.5809-1.08l-1.7739-1.9376.6706-2.6783.2144.6432c.2066.6277.6511 1.1462 1.2359 1.4425l.9083.4601c.6082.308 1.349.0585 1.657-.5575.3002-.6121.0545-1.3685-.5575-1.6764zm-9.47763 6.3235c.24171-.2378.42885-.5224.5536-.8382l.80702-2.0078c.09225.1262.11154.1647.1341.2012.0604.0977.14425.1809 1.71381 1.8924l-.5263 1.3177c-.1286.3158-.3158.6004-.5536.8382l-2.31577 2.3158c-.48733.4874-1.27485.4874-1.76218 0-.48733-.4873-.48733-1.2787 0-1.766z" fill="#6f6f6f" fill-rule="evenodd"/></svg>

<svg width="24" height="24" viewBox="0 0 24 24" fill="none" 
  xmlns="http://www.w3.org/2000/svg">
  <path fill-rule="evenodd" clip-rule="evenodd" d="M13.8518 5.74269C14.885 5.74269 15.7232 4.90448 15.7232 3.87135C15.7232 2.83821 14.885 2 13.8518 2C12.8187 2 11.9805 2.83821 11.9805 3.87135C11.9805 4.90448 12.8187 5.74269 13.8518 5.74269ZM17.5361 11.5556L16.6277 11.0955L16.2495 9.94932C15.6764 8.21053 14.078 6.99415 12.2651 6.99025C11.0291 6.98682 10.28 7.29479 9.12296 7.77039L9.12295 7.77039L9.12287 7.77042C8.96604 7.83489 8.80171 7.90244 8.62767 7.97271C7.78556 8.31189 7.0955 8.95517 6.69005 9.77388L6.42884 10.3041C6.12474 10.9201 6.37036 11.6686 6.98244 11.9766C7.59063 12.2846 8.33137 12.0351 8.63936 11.4191L8.90057 10.8889C9.03702 10.616 9.26315 10.4016 9.54385 10.2885L10.5887 9.86745L9.99609 12.2339C9.79336 13.0448 10.0117 13.9064 10.577 14.5263L12.9123 17.076C13.193 17.384 13.3918 17.7544 13.4932 18.1559L14.2066 21.0136C14.3743 21.6803 15.0526 22.0897 15.7193 21.922C16.386 21.7544 16.7953 21.076 16.6277 20.4094L15.7622 16.9396C15.6608 16.538 15.462 16.1637 15.1813 15.8596L13.4074 13.922L14.078 11.2437L14.2924 11.8869C14.499 12.5146 14.9435 13.0331 15.5283 13.3294L16.4366 13.7895C17.0448 14.0975 17.7856 13.848 18.0936 13.232C18.3938 12.6199 18.1481 11.8635 17.5361 11.5556ZM8.05847 17.8791C8.30018 17.6413 8.48732 17.3567 8.61207 17.0409L9.41909 15.0331C9.51134 15.1593 9.53063 15.1978 9.55319 15.2343C9.61359 15.332 9.69744 15.4152 11.267 17.1267L10.7407 18.4444C10.6121 18.7602 10.4249 19.0448 10.1871 19.2826L7.87133 21.5984C7.384 22.0858 6.59648 22.0858 6.10915 21.5984C5.62182 21.1111 5.62182 20.3197 6.10915 19.8324L8.05847 17.8791Z" fill="#6F6F6F"/>
</svg>
